src/shared/assets/image/calendar/10-oktober.svg

<svg width="24" height="24" viewBox="0 0 24 24" fill="none" xmlns="http://www.w3.org/2000/svg">
<g clip-path="url(#clip0_1_397)">
<path d="M19.5 2H18V0.5C18 0.224 17.776 0 17.5 0C17.224 0 17 0.224 17 0.5V2H7V0.5C7 0.224 6.776 0 6.5 0C6.224 0 6 0.224 6 0.5V2H4.5C2.019 2 0 4.019 0 6.5V19.5C0 21.981 2.019 24 4.5 24H5.5C5.776 24 6 23.776 6 23.5C6 23.224 5.776 23 5.5 23H4.5C2.57 23 1 21.43 1 19.5V9H23V13.5C23 13.776 23.224 14 23.5 14C23.776 14 24 13.776 24 13.5V6.5C24 4.019 21.981 2 19.5 2ZM1 8V6.5C1 4.57 2.57 3 4.5 3H19.5C21.43 3 23 4.57 23 6.5V8H1Z" fill="#474A55"/>
<path d="M7.83 22.09C7.17667 22.09 6.60667 21.9433 6.12 21.65C5.64 21.35 5.26667 20.93 5 20.39C4.74 19.85 4.61 19.21 4.61 18.47C4.61 17.91 4.68333 17.41 4.83 16.97C4.98333 16.5233 5.2 16.1467 5.48 15.84C5.76 15.5267 6.09667 15.2867 6.49 15.12C6.89 14.9467 7.33667 14.86 7.83 14.86C8.49667 14.86 9.07 15.0067 9.55 15.3C10.0367 15.5933 10.41 16.01 10.67 16.55C10.9367 17.0833 11.07 17.72 11.07 18.46C11.07 19.02 10.9933 19.5233 10.84 19.97C10.6867 20.4167 10.47 20.7967 10.19 21.11C9.91 21.4233 9.57 21.6667 9.17 21.84C8.77667 22.0067 8.33 22.09 7.83 22.09ZM7.83 21.36C8.33667 21.36 8.76333 21.2467 9.11 21.02C9.46333 20.7933 9.73333 20.4633 9.92 20.03C10.1067 19.5967 10.2 19.0767 10.2 18.47C10.2 17.5567 9.99333 16.85 9.58 16.35C9.17333 15.8433 8.59 15.59 7.83 15.59C7.33667 15.59 6.91333 15.7033 6.56 15.93C6.21333 16.1567 5.94667 16.4867 5.76 16.92C5.57333 17.3467 5.48 17.8633 5.48 18.47C5.48 19.3767 5.68667 20.0867 6.1 20.6C6.51333 21.1067 7.09 21.36 7.83 21.36ZM12.876 22.07C12.7427 22.07 12.6393 22.0333 12.566 21.96C12.4993 21.8867 12.466 21.7833 12.466 21.65V17.51C12.466 17.37 12.4993 17.2667 12.566 17.2C12.6393 17.1267 12.7427 17.09 12.876 17.09C13.0027 17.09 13.0993 17.1267 13.166 17.2C13.2393 17.2667 13.276 17.37 13.276 17.51V19.17H14.186L15.666 17.27C15.7327 17.19 15.806 17.14 15.886 17.12C15.966 17.0933 16.0393 17.0933 16.106 17.12C16.1793 17.14 16.236 17.18 16.276 17.24C16.3227 17.2933 16.346 17.36 16.346 17.44C16.346 17.52 16.316 17.6033 16.256 17.69L14.846 19.5L14.616 19.24C14.8027 19.26 14.966 19.3067 15.106 19.38C15.246 19.4533 15.3793 19.5633 15.506 19.71C15.6327 19.8567 15.7693 20.06 15.916 20.32L16.636 21.51C16.6827 21.6033 16.6993 21.6867 16.686 21.76C16.6793 21.8333 16.646 21.9 16.586 21.96C16.526 22.0133 16.456 22.0467 16.376 22.06C16.3027 22.0733 16.2293 22.0633 16.156 22.03C16.0827 21.9967 16.016 21.9367 15.956 21.85L15.166 20.53C15.0527 20.3433 14.946 20.2 14.846 20.1C14.746 19.9933 14.6327 19.92 14.506 19.88C14.3793 19.84 14.2227 19.82 14.036 19.82H13.276V21.65C13.276 21.7833 13.2393 21.8867 13.166 21.96C13.0993 22.0333 13.0027 22.07 12.876 22.07ZM19.1497 22.07C19.023 22.07 18.923 22.0333 18.8497 21.96C18.7764 21.8867 18.7397 21.7833 18.7397 21.65V17.79H17.2797C17.0264 17.79 16.8997 17.68 16.8997 17.46C16.8997 17.36 16.933 17.2833 16.9997 17.23C17.0664 17.17 17.1597 17.14 17.2797 17.14H21.0197C21.2664 17.14 21.3897 17.2467 21.3897 17.46C21.3897 17.5667 21.3564 17.65 21.2897 17.71C21.2297 17.7633 21.1397 17.79 21.0197 17.79H19.5497V21.65C19.5497 21.7833 19.5164 21.8867 19.4497 21.96C19.3897 22.0333 19.2897 22.07 19.1497 22.07Z" fill="#474A55"/>
</g>
<g clip-path="url(#clip1_1_397)">
<path d="M19.5 2H18V0.5C18 0.224 17.776 0 17.5 0C17.224 0 17 0.224 17 0.5V2H7V0.5C7 0.224 6.776 0 6.5 0C6.224 0 6 0.224 6 0.5V2H4.5C2.019 2 0 4.019 0 6.5V19.5C0 21.981 2.019 24 4.5 24H5.5C5.776 24 6 23.776 6 23.5C6 23.224 5.776 23 5.5 23H4.5C2.57 23 1 21.43 1 19.5V9H23V13.5C23 13.776 23.224 14 23.5 14C23.776 14 24 13.776 24 13.5V6.5C24 4.019 21.981 2 19.5 2ZM1 8V6.5C1 4.57 2.57 3 4.5 3H19.5C21.43 3 23 4.57 23 6.5V8H1Z" fill="#474A55"/>
</g>
<defs>
<clipPath id="clip0_1_397">
<rect width="24" height="24" fill="white"/>
</clipPath>
<clipPath id="clip1_1_397">
<rect width="24" height="24" fill="white"/>
</clipPath>
</defs>
</svg>

<svg width="24" height="24" fill="none" xmlns="http://www.w3.org/2000/svg"><g clip-path="url(#a)" fill="#474A55"><path d="M19.5 2H18V.5a.5.5 0 0 0-1 0V2H7V.5a.5.5 0 0 0-1 0V2H4.5A4.5 4.5 0 0 0 0 6.5v13A4.5 4.5 0 0 0 4.5 24h1a.5.5 0 0 0 0-1h-1A3.5 3.5 0 0 1 1 19.5V9h22v4.5a.5.5 0 0 0 1 0v-7A4.5 4.5 0 0 0 19.5 2ZM1 8V6.5A3.5 3.5 0 0 1 4.5 3h15A3.5 3.5 0 0 1 23 6.5V8H1Z"/><path d="M7.83 22.09c-.65 0-1.22-.15-1.71-.44-.48-.3-.85-.72-1.12-1.26a4.39 4.39 0 0 1-.39-1.92c0-.56.07-1.06.22-1.5.15-.45.37-.82.65-1.13a2.8 2.8 0 0 1 1.01-.72c.4-.17.85-.26 1.34-.26.67 0 1.24.15 1.72.44.49.3.86.71 1.12 1.25.27.53.4 1.17.4 1.91 0 .56-.08 1.06-.23 1.51-.15.45-.37.83-.65 1.14-.28.31-.62.56-1.02.73-.4.17-.84.25-1.34.25Zm0-.73c.5 0 .93-.11 1.28-.34.35-.23.62-.56.81-.99.19-.43.28-.95.28-1.56 0-.91-.2-1.62-.62-2.12-.4-.5-.99-.76-1.75-.76-.5 0-.92.11-1.27.34-.35.23-.61.56-.8.99-.19.43-.28.94-.28 1.55 0 .9.2 1.62.62 2.13.41.5.99.76 1.73.76Zm5.05.71a.42.42 0 0 1-.31-.11.44.44 0 0 1-.1-.31v-4.14c0-.14.03-.24.1-.31a.42.42 0 0 1 .3-.11c.13 0 .23.04.3.11.07.07.1.17.1.31v1.66h.92l1.48-1.9a.42.42 0 0 1 .22-.15.31.31 0 0 1 .22 0c.07.02.13.06.17.12a.3.3 0 0 1 .07.2c0 .08-.03.16-.1.25l-1.4 1.81-.23-.26c.18.02.35.07.49.14s.27.18.4.33c.12.15.26.35.4.61l.73 1.19c.04.1.06.18.05.25-.01.07-.04.14-.1.2a.41.41 0 0 1-.21.1.36.36 0 0 1-.22-.03.5.5 0 0 1-.2-.18l-.8-1.32a2.31 2.31 0 0 0-.31-.43.79.79 0 0 0-.34-.22 1.58 1.58 0 0 0-.47-.06h-.76v1.83c0 .13-.04.24-.11.31s-.17.11-.3.11Zm6.27 0a.4.4 0 0 1-.3-.11.42.42 0 0 1-.11-.31v-3.86h-1.46c-.25 0-.38-.11-.38-.33 0-.1.03-.18.1-.23a.4.4 0 0 1 .28-.09h3.74c.25 0 .37.1.37.32 0 .1-.03.19-.1.25-.06.05-.15.08-.27.08h-1.47v3.86c0 .13-.03.24-.1.31-.06.07-.16.11-.3.11Z"/></g><g clip-path="url(#b)"><path d="M19.5 2H18V.5a.5.5 0 0 0-1 0V2H7V.5a.5.5 0 0 0-1 0V2H4.5A4.5 4.5 0 0 0 0 6.5v13A4.5 4.5 0 0 0 4.5 24h1a.5.5 0 0 0 0-1h-1A3.5 3.5 0 0 1 1 19.5V9h22v4.5a.5.5 0 0 0 1 0v-7A4.5 4.5 0 0 0 19.5 2ZM1 8V6.5A3.5 3.5 0 0 1 4.5 3h15A3.5 3.5 0 0 1 23 6.5V8H1Z" fill="#474A55"/></g><defs><clipPath id="a"><path fill="#fff" d="M0 0h24v24H0z"/></clipPath><clipPath id="b"><path fill="#fff" d="M0 0h24v24H0z"/></clipPath></defs></svg>
